X:585
T:Reel 585
M:4/4
K:Ddor
L:1/8
AcBG ADD2|EDCD EFG2|FAAG A2AB|cAGE D2D2|FAAG A2GF|EFGF ECC2|FEFG A2AG|FAGE D2D2|Adde f2ed|cdef gcc2|Adde f2ed|cAGE EDD2|Adde f2ed|cAGF EFG2|AGdc defb|afge d2d2|
